X:145
T:Swallow's Nest
Z: id:dc-jig-121
M:6/8
L:1/8
K:A Dorian
B|cAA eAA|cBA edc|BGG dGG|gfg dcB|!
cAA eAA|cBA e2f|gfg dcB|cAA A2:|!
d|efg a2b|a2b age|efg a2b|agf g2d|!
efg a2b|a2b agf|gfg dcB|cAA A2:|!

